X:736
T:Kelly The Rake
M:6/8
L:1/8
B:O'Neill's 736
R:Jig
Z:"Transcribed by Bob Safranek, rjs@gsp.org"
K:Dmix
gdB gdB|gdB g2 a|bag gfg|afd dcd|
gdB gdB|gdB g2 a|bag fga|1 g3 g2 z :|2 g2 f2 z||
K:Bb
|: fdB cBAB|fBB gBB|fdB cBAB|cAF FAc|
fdB cBAB|fBB gBB|fba    gfe|1 dcB AGF :|2 dcB AFd|]
